icons/grails.svg

<?xml version="1.0" encoding="UTF-8"?>
<svg width="256px" height="256px" viewBox="0 0 256 256" version="1.1" xmlns="http://www.w3.org/2000/svg" xmlns:xlink="http://www.w3.org/1999/xlink" preserveAspectRatio="xMidYMid">
    <g>
        <path d="M127.999014,0 C57.3084299,0 0,57.300543 0,127.995071 C0,198.687627 57.3104017,255.994085 127.999014,255.994085 C198.693542,255.994085 256,198.687627 256,127.995071 C256,57.300543 198.693542,0 127.999014,0 Z M195.858189,61.6955366 C195.160196,61.1592252 194.267,60.7057265 193.200293,60.3350406 C192.157246,59.9663265 191.017584,59.5916972 189.802996,59.2269265 C188.610097,58.8641275 187.476351,58.3711942 186.449078,57.7560134 C185.42772,57.1546347 184.570016,56.3383371 183.89174,55.348527 C183.22135,54.3626603 182.882212,53.041599 182.882212,51.4149189 C182.882212,49.8375323 183.193746,48.4336581 183.814842,47.258505 C184.441853,46.0656063 185.281812,45.0560789 186.318943,44.2594986 C187.36199,43.4530597 188.57855,42.8418223 189.927215,42.437617 C191.293627,42.0353834 192.723133,41.8283514 194.162499,41.8283514 C195.842415,41.8283514 197.482898,42.0728463 199.038595,42.5421188 C200.537112,43.0035044 201.915354,43.7645935 203.12797,44.8115839 L198.841422,49.5023376 C198.299195,48.8772981 197.581484,48.4001386 196.704063,48.0964917 C195.771433,47.7652405 194.870351,47.6015866 194.038279,47.6015866 C193.549289,47.6015866 193.036639,47.6528517 192.518073,47.7711557 C191.997535,47.887488 191.500659,48.0688874 191.035329,48.3173258 C190.562113,48.5716794 190.165795,48.9088458 189.872007,49.3209381 C189.56836,49.7448608 189.414565,50.2653984 189.414565,50.8588901 C189.414565,51.8348981 189.769477,52.5565525 190.504933,53.0790619 C191.191096,53.5680518 192.068518,53.9939462 193.119452,54.3291408 C194.146725,54.6702507 195.268641,55.0172758 196.449709,55.348527 C197.616975,55.6856934 198.721146,56.1648246 199.73856,56.7740902 C200.748088,57.3813841 201.593962,58.2114838 202.248577,59.2269265 C202.911079,60.2423692 203.242331,61.6166673 203.242331,63.3360188 C203.242331,64.9646705 202.93474,66.4119228 202.325475,67.6324258 C201.716209,68.8489853 200.886109,69.8703431 199.848978,70.6669234 C198.813818,71.4595602 197.585428,72.0727693 196.220988,72.4552856 C194.83486,72.8496322 193.360003,73.0448338 191.829938,73.0448338 C189.911441,73.0448338 188.10139,72.7530173 186.456965,72.1674125 C184.861832,71.5975815 183.361343,70.6807255 181.975215,69.4286749 L186.431332,64.5308892 C187.101721,65.3787345 187.951538,66.0510956 188.935433,66.5262834 C189.986367,67.0192167 191.09251,67.2775138 192.212454,67.2775138 C192.766511,67.2775138 193.324512,67.2144183 193.884484,67.0862556 C194.446428,66.9561212 194.955135,66.7490892 195.412578,66.4967074 C195.873963,66.2285516 196.244649,65.8795548 196.532522,65.4694343 C196.818423,65.0455116 196.964332,64.5348327 196.964332,63.9709169 C196.968275,62.9949089 196.601533,62.2535372 195.858189,61.6955366 Z M160.577964,42.5933839 L166.855963,42.5933839 L166.855963,66.5085378 L179.11423,66.5085378 L179.11423,72.2837448 L160.579936,72.2837448 L160.579936,42.5933839 L160.577964,42.5933839 Z M146.915824,42.5933839 L153.189879,42.5933839 L153.189879,72.2837448 L146.915824,72.2837448 L146.915824,42.5933839 Z M124.881704,42.5933839 L130.13243,42.5933839 L143.049255,72.2837448 L135.954958,72.2837448 L133.370016,65.9170178 L121.470605,65.9170178 L118.968475,72.2837448 L112.047691,72.2837448 L124.881704,42.5933839 Z M85.9675742,42.5933839 L97.4174298,42.5933839 C98.9238341,42.5933839 100.373058,42.7392922 101.731582,43.0370239 C103.070389,43.3209535 104.263288,43.8178303 105.272815,44.4941349 C106.2784,45.1724111 107.08681,46.0912389 107.680302,47.2328725 C108.273794,48.3745061 108.573497,49.8316171 108.573497,51.5450533 C108.573497,53.6153734 108.029299,55.4017638 106.952732,56.8529595 C105.921516,58.2430315 104.407225,59.1460854 102.455209,59.556206 L101.993823,59.6547926 L109.586968,72.2837448 L102.060862,72.2837448 L95.7848346,60.2837756 L92.247545,60.2837756 L92.247545,72.2837448 L85.969546,72.2837448 L85.969546,42.5933839 L85.9675742,42.5933839 Z M52.97456,50.9653637 C53.7632534,49.0468672 54.8851696,47.3925829 56.3087611,46.0439173 C57.7264374,44.6952517 59.4319868,43.6482613 61.3800593,42.9167482 C63.3320753,42.193122 65.4970385,41.8263796 67.8118535,41.8263796 C70.1877922,41.8263796 72.4040205,42.1181962 74.4053298,42.6880271 C76.3336851,43.2401125 78.0609235,44.2003466 79.53578,45.5312666 L75.1072669,50.3639851 C74.2219586,49.4826202 73.2124312,48.8023722 72.1181192,48.331128 C70.9705703,47.8381946 69.5233181,47.6015866 67.8118535,47.6015866 C66.3823468,47.6015866 65.0691724,47.8381946 63.9097932,48.331128 C62.7444988,48.8220896 61.7349713,49.5102245 60.9028998,50.3837024 C60.0688566,51.2630955 59.4260716,52.3160011 58.9804598,53.5167867 C58.5368198,54.719544 58.3199291,56.0386337 58.3199291,57.4385643 C58.3199291,58.8641275 58.5368198,60.1891324 58.9804598,61.382031 C59.4260716,62.5670428 60.0728001,63.6140332 60.9028998,64.4914545 C61.736943,65.3609889 62.7464705,66.0530674 63.9097932,66.5420572 C65.0672007,67.0290754 66.3843186,67.2735703 67.8118535,67.2735703 C69.2669927,67.2735703 70.5348173,67.1099164 71.5956098,66.7786652 C72.5933069,66.4691031 73.413548,66.1496823 74.0326722,65.8223746 L74.0760504,65.796742 L74.145061,65.7316748 L74.2121,65.6113991 L74.2121,60.5696769 L68.8292679,60.5696769 L68.8292679,54.8063003 L80.2377171,54.8063003 L80.2377171,70.2291986 C78.323164,71.2130935 76.311996,71.9327762 74.263365,72.3685293 C72.1674125,72.822028 69.9925906,73.0428621 67.8118535,73.0428621 C65.4970385,73.0428621 63.3340471,72.6780914 61.3800593,71.9524935 C59.4319868,71.2328109 57.7244657,70.1759618 56.3087611,68.8272962 C54.8910848,67.4845458 53.7632534,65.8223746 52.97456,63.8999345 C52.1819232,61.9834097 51.7777179,59.8105596 51.7777179,57.4385643 C51.7777179,55.0705126 52.1819232,52.893719 52.97456,50.9653637 Z M93.9530943,152.844826 C92.0345978,153.688728 89.5857049,154.64699 88.6294143,155.155698 C86.8647129,156.096214 84.1338622,158.154704 82.5998537,160.516841 C81.4641352,162.273655 80.4072862,164.661424 80.0642046,166.22698 C79.8552008,167.212847 79.750699,168.656156 79.772388,170.351847 C79.8137944,174.307144 80.4960142,179.567728 81.8545385,183.176 C83.4003774,187.273262 84.2423075,188.637702 86.0247545,192.7882 C86.7819001,194.545015 87.4917241,196.219016 87.8348057,197.035314 C87.9787422,197.358678 87.9353641,197.729364 87.7421342,198.021181 C87.2689182,198.744807 86.206154,200.109246 84.4453961,201.055678 C81.3793507,202.711934 74.921924,203.30937 71.7178573,203.331059 L71.7040551,203.331059 C68.5059036,203.307398 62.0484769,202.711934 58.9784881,201.055678 C57.2177302,200.109246 56.1589094,198.744807 55.6856934,198.021181 C55.48852,197.729364 55.4510571,197.358678 55.5890784,197.035314 C55.9361035,196.219016 56.6478993,194.543043 57.4030731,192.7882 C59.1855201,188.637702 60.0274502,187.273262 61.5732892,183.176 C62.9318135,179.567728 63.6140332,174.307144 63.6534679,170.351847 C63.6731852,168.658128 63.5726268,167.212847 63.3577079,166.22698 C63.0146263,164.659452 61.9597489,162.271683 60.8240305,160.516841 C59.2939654,158.156676 56.5571995,156.096214 54.7964416,155.155698 C53.4714368,154.451789 49.2598144,152.87243 47.6035584,151.959518 C45.4938037,150.792252 42.7432356,148.978257 40.8976932,147.531005 C38.8411753,145.926014 34.8030654,141.958886 33.223707,139.998983 C30.1970963,136.244803 27.4090654,131.841922 26.0603997,127.093989 C24.3824547,121.206393 24.4455501,118.686518 24.224716,116.785767 C24.1852813,116.464374 24.4297763,116.174529 24.757084,116.156784 C26.3758771,116.103547 32.2062926,115.969469 52.5723264,115.937819 C52.97456,115.932006 53.3334155,116.182416 53.477352,116.557045 C59.2052374,131.731505 74.1470328,144.281588 93.8643663,151.109701 C94.6708053,151.383772 94.7398159,152.501745 93.9530943,152.844826 Z M144.096245,196.02973 C146.602318,202.68433 147.970701,204.8907 150.867178,211.637971 C152.091624,214.487126 153.24706,217.21009 153.809004,218.523264 C154.035753,219.057604 153.974629,219.647152 153.659152,220.136142 C152.884261,221.315239 151.158994,223.521608 148.305896,225.061532 C143.327269,227.752948 132.83962,228.726984 127.636215,228.746702 L127.616498,228.746702 C122.413094,228.726984 111.929387,227.752948 106.948789,225.061532 C104.095691,223.521608 102.378311,221.315239 101.60342,220.136142 C101.287942,219.647152 101.226819,219.057604 101.453568,218.523264 C102.015512,217.21009 103.163061,214.487126 104.387507,211.637971 C107.285955,204.8907 108.654338,202.68433 111.162383,196.02973 C113.370724,190.167767 114.48081,181.630161 114.547849,175.196395 C114.575453,172.461601 114.4118,170.10538 114.066746,168.500389 C113.512689,165.962768 111.795309,162.096199 109.949767,159.239157 C107.465383,155.392306 103.021096,152.06402 100.164054,150.53987 C98.0030346,149.388378 91.1709785,146.827096 88.4795625,145.340409 C85.05269,143.45346 80.5867139,140.499804 77.5916509,138.157384 C74.2535064,135.546809 67.6955212,129.113043 65.1362113,125.922779 C60.2187084,119.822236 55.6876651,112.672731 53.4970694,104.969169 C50.7800208,95.4062618 50.8845227,91.3208303 50.5217237,88.2311241 C50.4606,87.6967844 50.8569184,87.2294836 51.3853429,87.2097662 C54.6998267,87.0894905 68.8667309,86.7819001 127.634243,86.8410521 C186.395841,86.7819001 200.562745,87.0894905 203.875257,87.2097662 C204.409597,87.2294836 204.807887,87.6967844 204.740848,88.2311241 C204.378049,91.3208303 204.482551,95.4082335 201.767474,104.969169 C199.572935,112.672731 195.043863,119.822236 190.12636,125.922779 C187.565079,129.111072 181.011037,135.544838 177.672893,138.157384 C174.673886,140.499804 170.205938,143.45346 166.779066,145.340409 C164.091593,146.827096 157.255594,149.388378 155.102461,150.53987 C152.241476,152.06402 147.801132,155.392306 145.308861,159.239157 C143.467262,162.096199 141.749883,165.962768 141.199769,168.500389 C140.8488,170.10538 140.691062,172.463573 140.718666,175.196395 C140.775846,181.630161 141.889876,190.167767 144.096245,196.02973 Z M222.77235,139.997012 C221.196935,141.956915 217.160796,145.924042 215.104279,147.529033 C213.254793,148.976285 210.506196,150.79028 208.392498,151.957546 C206.736242,152.870459 202.526591,154.449817 201.20553,155.153726 C199.440829,156.094243 196.704063,158.152732 195.170054,160.514869 C194.038279,162.271683 192.979459,164.659452 192.64032,166.225009 C192.421458,167.210875 192.328787,168.654184 192.340617,170.349875 C192.382023,174.305172 193.068187,179.565757 194.424739,183.174029 C195.97255,187.27129 196.812508,188.63573 198.594955,192.786229 C199.350129,194.543043 200.057981,196.217045 200.40895,197.033342 C200.546971,197.356707 200.509508,197.727392 200.312335,198.019209 C199.835175,198.742835 198.780298,200.107275 197.01954,201.053707 C193.945608,202.709963 187.496068,203.307398 184.292001,203.329087 L184.280171,203.329087 C181.076104,203.305426 174.618678,202.709963 171.552632,201.053707 C169.787931,200.107275 168.733053,198.742835 168.255894,198.019209 C168.058721,197.727392 168.021258,197.356707 168.159279,197.033342 C168.506304,196.217045 169.214156,194.541071 169.973274,192.786229 C171.755721,188.63573 172.595679,187.27129 174.139546,183.174029 C175.498071,179.565757 176.184234,174.305172 176.227612,170.349875 C176.239442,168.656156 176.142827,167.210875 175.931852,166.225009 C175.58877,164.657481 174.52995,162.269712 173.398175,160.514869 C171.866138,158.154704 169.131344,156.094243 167.366642,155.153726 C166.412323,154.645019 163.955544,153.686756 162.044934,152.842854 C161.256241,152.499773 161.325251,151.383772 162.133662,151.105757 C181.854939,144.277645 196.792791,131.727562 202.518705,116.553102 C202.664613,116.178473 203.027412,115.928063 203.42373,115.933875 C223.791736,115.967497 229.622151,116.099603 231.238973,116.15284 C231.56628,116.172557 231.808803,116.460431 231.771341,116.781823 C231.556422,118.682574 231.613602,121.200478 229.937629,127.090045 C228.588963,131.839951 225.800932,136.242831 222.77235,139.997012 Z M102.041145,51.49576 C102.041145,52.3593792 101.845943,53.0317403 101.475257,53.5108715 C101.102599,53.988031 100.627412,54.3370278 100.061524,54.5598336 C99.5153541,54.778696 98.8863712,54.9108022 98.2120384,54.9581238 C97.541649,54.9975584 96.9047791,55.0212192 96.3172026,55.0212192 L92.2455732,55.0212192 L92.2455732,47.8519968 L96.7391535,47.8519968 C97.3326453,47.8519968 97.9517696,47.8914314 98.584696,47.9841029 C99.2235376,48.0610005 99.797312,48.2384565 100.290245,48.4770362 C100.795009,48.7333616 101.222875,49.1040474 101.542296,49.5792352 C101.871575,50.0563947 102.041145,50.7110101 102.041145,51.49576 Z M127.314823,50.6952363 L131.252374,60.6643201 L123.416706,60.6643201 L127.314823,50.6952363 Z" fill="#FEB672"></path>
    </g>
</svg>

<svg xmlns="http://www.w3.org/2000/svg" viewBox="0 0 256 255.994">
  <path fill="#feb672" d="M127.999 0C57.309 0 0 57.3 0 127.995c0 70.693 57.31 128 127.999 128 70.695 0 128.001-57.307 128.001-128C256 57.301 198.694 0 127.999 0zm67.86 61.696c-.699-.537-1.592-.99-2.659-1.361a74.674 74.674 0 0 0-3.397-1.108 15.074 15.074 0 0 1-3.354-1.471 8.035 8.035 0 0 1-2.557-2.407c-.67-.986-1.01-2.307-1.01-3.934 0-1.577.312-2.981.933-4.156a9.051 9.051 0 0 1 2.504-3c1.043-.806 2.26-1.417 3.608-1.821a15.016 15.016 0 0 1 4.235-.61c1.68 0 3.32.245 4.877.714a11.326 11.326 0 0 1 4.089 2.27l-4.287 4.69c-.542-.625-1.26-1.102-2.137-1.406-.933-.33-1.834-.494-2.666-.494-.489 0-1.001.05-1.52.17a5.845 5.845 0 0 0-1.483.545c-.473.255-.87.592-1.163 1.004-.304.424-.457.944-.457 1.538 0 .976.354 1.698 1.09 2.22.686.49 1.564.915 2.614 1.25 1.028.341 2.15.688 3.33 1.02 1.168.337 2.272.816 3.29 1.425a7.704 7.704 0 0 1 2.51 2.453c.662 1.015.993 2.39.993 4.109 0 1.629-.307 3.076-.917 4.296a8.676 8.676 0 0 1-2.476 3.035 10.713 10.713 0 0 1-3.628 1.788c-1.386.395-2.861.59-4.391.59-1.919 0-3.729-.292-5.373-.878-1.595-.57-3.096-1.486-4.482-2.738l4.456-4.898c.67.848 1.52 1.52 2.504 1.995a7.69 7.69 0 0 0 3.277.752c.555 0 1.113-.064 1.672-.192a5.92 5.92 0 0 0 1.529-.59 3.51 3.51 0 0 0 1.12-1.027c.285-.423.431-.934.431-1.498.004-.976-.362-1.717-1.106-2.275zm-35.281-19.103h6.278V66.51h12.258v5.775H160.58v-29.69zm-13.662 0h6.274v29.69h-6.274zm-22.034 0h5.25l12.917 29.69h-7.094l-2.585-6.366h-11.9l-2.502 6.367h-6.92zm-38.914 0h11.45c1.506 0 2.955.146 4.314.444 1.338.284 2.531.78 3.54 1.457 1.006.678 1.815 1.597 2.408 2.739.594 1.142.893 2.599.893 4.312 0 2.07-.544 3.857-1.62 5.308-1.031 1.39-2.546 2.293-4.498 2.703l-.461.099 7.593 12.629h-7.526l-6.276-12h-3.537v12H85.97v-29.69zm-32.993 8.372c.788-1.918 1.91-3.572 3.334-4.921 1.417-1.349 3.123-2.396 5.071-3.127 1.952-.724 4.117-1.09 6.432-1.09 2.376 0 4.592.291 6.593.861a12.897 12.897 0 0 1 5.13 2.843l-4.428 4.833a9.623 9.623 0 0 0-2.989-2.033c-1.147-.493-2.595-.73-4.306-.73-1.43 0-2.743.237-3.902.73a8.863 8.863 0 0 0-3.007 2.053c-.834.88-1.477 1.932-1.923 3.133-.443 1.203-.66 2.522-.66 3.922 0 1.425.217 2.75.66 3.943a9.204 9.204 0 0 0 1.923 3.11 8.925 8.925 0 0 0 3.007 2.05c1.157.487 2.474.732 3.902.732 1.455 0 2.723-.164 3.784-.495.997-.31 1.818-.63 2.437-.957l.043-.025.07-.065.066-.12V60.57H68.83v-5.764h11.409V70.23a24.02 24.02 0 0 1-5.975 2.14c-2.096.453-4.27.674-6.451.674-2.315 0-4.478-.365-6.432-1.09-1.948-.72-3.656-1.777-5.071-3.126-1.418-1.342-2.546-3.005-3.334-4.927-.793-1.917-1.197-4.09-1.197-6.461 0-2.368.404-4.545 1.197-6.474zm40.978 101.88c-1.918.844-4.367 1.802-5.324 2.31-1.764.941-4.495 3-6.03 5.362-1.135 1.757-2.192 4.144-2.535 5.71-.209.986-.313 2.43-.292 4.125.042 3.955.724 9.216 2.083 12.824 1.545 4.097 2.387 5.462 4.17 9.612a567.53 567.53 0 0 1 1.81 4.247c.144.324.1.694-.093.986-.473.724-1.536 2.088-3.297 3.035-3.066 1.656-9.523 2.253-12.727 2.275h-.014c-3.198-.024-9.656-.62-12.726-2.275-1.76-.947-2.82-2.311-3.292-3.035a1.035 1.035 0 0 1-.097-.986c.347-.816 1.059-2.492 1.814-4.247 1.783-4.15 2.624-5.515 4.17-9.612 1.359-3.608 2.041-8.869 2.08-12.824.02-1.694-.08-3.14-.295-4.125-.343-1.568-1.398-3.955-2.534-5.71-1.53-2.36-4.267-4.42-6.028-5.361-1.325-.704-5.536-2.284-7.192-3.196-2.11-1.168-4.86-2.982-6.706-4.429-2.057-1.605-6.095-5.572-7.674-7.532-3.027-3.754-5.815-8.157-7.164-12.905-1.678-5.888-1.614-8.407-1.835-10.308a.565.565 0 0 1 .532-.63c1.619-.052 7.45-.187 27.815-.218a.958.958 0 0 1 .905.62c5.728 15.174 20.67 27.724 40.387 34.552.807.274.876 1.392.09 1.735zm50.143 43.185c2.506 6.654 3.875 8.86 6.771 15.608 1.225 2.85 2.38 5.572 2.942 6.885a1.71 1.71 0 0 1-.15 1.613c-.775 1.18-2.5 3.386-5.353 4.926-4.979 2.69-15.466 3.665-20.67 3.685h-.02c-5.203-.02-15.687-.994-20.667-3.685-2.853-1.54-4.57-3.747-5.346-4.926a1.71 1.71 0 0 1-.15-1.613c.563-1.313 1.71-4.036 2.935-6.885 2.898-6.747 4.266-8.954 6.774-15.608 2.209-5.862 3.319-14.4 3.386-20.834.027-2.734-.136-5.09-.481-6.696-.554-2.537-2.272-6.404-4.117-9.26-2.485-3.848-6.929-7.176-9.786-8.7-2.16-1.152-8.993-3.713-11.684-5.2-3.427-1.887-7.893-4.84-10.888-7.183-3.338-2.61-9.896-9.044-12.456-12.234-4.917-6.1-9.448-13.25-11.639-20.954-2.717-9.563-2.612-13.648-2.975-16.738a.909.909 0 0 1 .863-1.021c3.315-.12 17.482-.428 76.25-.369 58.76-.06 72.928.248 76.24.369.535.02.933.487.866 1.021-.363 3.09-.258 7.177-2.974 16.738-2.194 7.704-6.723 14.853-11.64 20.954-2.562 3.188-9.116 9.622-12.454 12.234-3 2.343-7.467 5.296-10.894 7.183-2.687 1.487-9.523 4.048-11.677 5.2-2.86 1.524-7.3 4.852-9.793 8.7-1.842 2.856-3.56 6.723-4.11 9.26-.35 1.605-.508 3.964-.48 6.696.057 6.434 1.17 14.972 3.377 20.834zm78.676-56.033c-1.575 1.96-5.611 5.927-7.668 7.532-1.85 1.447-4.598 3.261-6.712 4.429-1.656.912-5.865 2.492-7.186 3.196-1.765.94-4.502 2.999-6.036 5.36-1.132 1.758-2.19 4.145-2.53 5.711-.219.986-.311 2.43-.3 4.125.042 3.955.728 9.216 2.085 12.824 1.548 4.097 2.388 5.462 4.17 9.612.755 1.757 1.463 3.431 1.814 4.247.138.324.1.694-.097.986-.477.724-1.532 2.088-3.292 3.035-3.074 1.656-9.524 2.253-12.728 2.275h-.012c-3.204-.024-9.661-.619-12.727-2.275-1.765-.947-2.82-2.311-3.297-3.035a1.035 1.035 0 0 1-.097-.986c.347-.816 1.055-2.492 1.814-4.247 1.783-4.15 2.623-5.515 4.167-9.612 1.358-3.608 2.044-8.869 2.088-12.824.011-1.694-.085-3.14-.296-4.125-.343-1.568-1.402-3.955-2.534-5.71-1.532-2.36-4.267-4.42-6.031-5.361-.955-.509-3.411-1.467-5.322-2.311-.789-.343-.72-1.46.089-1.737 19.721-6.828 34.659-19.378 40.385-34.553a.966.966 0 0 1 .905-.62c20.368.034 26.198.167 27.815.22.327.02.57.307.532.629-.215 1.9-.157 4.418-1.833 10.308-1.349 4.75-4.137 9.153-7.166 12.907zm-120.73-88.501c0 .863-.196 1.536-.567 2.015a3.294 3.294 0 0 1-1.413 1.049 6.157 6.157 0 0 1-1.85.398c-.67.04-1.307.063-1.895.063h-4.071v-7.169h4.493c.594 0 1.213.04 1.846.132a5.393 5.393 0 0 1 1.705.493c.505.256.933.627 1.252 1.102.33.477.5 1.132.5 1.917zm25.273-.8 3.937 9.968h-7.835z"/>
</svg>
